images/4992.svg

<?xml version="1.0" encoding="UTF-8"?>
<svg xmlns="http://www.w3.org/2000/svg" xmlns:xlink="http://www.w3.org/1999/xlink" width="300pt" height="300pt" viewBox="0 0 300 300" version="1.1">
<defs>
<g>
<symbol overflow="visible" id="glyph0-0">
<path style="stroke:none;" d="M 0.546875 1.9375 L 0.546875 -7.75 L 6.046875 -7.75 L 6.046875 1.9375 Z M 1.171875 1.328125 L 5.4375 1.328125 L 5.4375 -7.140625 L 1.171875 -7.140625 Z M 1.171875 1.328125 "/>
</symbol>
<symbol overflow="visible" id="glyph0-1">
<path style="stroke:none;" d="M 1.078125 -8.015625 L 2.546875 -8.015625 L 6.09375 -1.3125 L 6.09375 -8.015625 L 7.15625 -8.015625 L 7.15625 0 L 5.6875 0 L 2.125 -6.703125 L 2.125 0 L 1.078125 0 Z M 1.078125 -8.015625 "/>
</symbol>
<symbol overflow="visible" id="glyph0-2">
<path style="stroke:none;" d="M 4.328125 -7.28125 C 3.546875 -7.28125 2.921875 -6.984375 2.453125 -6.390625 C 1.992188 -5.804688 1.765625 -5.007812 1.765625 -4 C 1.765625 -2.988281 1.992188 -2.1875 2.453125 -1.59375 C 2.921875 -1.007812 3.546875 -0.71875 4.328125 -0.71875 C 5.117188 -0.71875 5.742188 -1.007812 6.203125 -1.59375 C 6.660156 -2.1875 6.890625 -2.988281 6.890625 -4 C 6.890625 -5.007812 6.660156 -5.804688 6.203125 -6.390625 C 5.742188 -6.984375 5.117188 -7.28125 4.328125 -7.28125 Z M 4.328125 -8.171875 C 5.453125 -8.171875 6.351562 -7.789062 7.03125 -7.03125 C 7.707031 -6.28125 8.046875 -5.269531 8.046875 -4 C 8.046875 -2.738281 7.707031 -1.726562 7.03125 -0.96875 C 6.351562 -0.21875 5.453125 0.15625 4.328125 0.15625 C 3.203125 0.15625 2.300781 -0.21875 1.625 -0.96875 C 0.957031 -1.71875 0.625 -2.726562 0.625 -4 C 0.625 -5.269531 0.957031 -6.28125 1.625 -7.03125 C 2.300781 -7.789062 3.203125 -8.171875 4.328125 -8.171875 Z M 4.328125 -8.171875 "/>
</symbol>
</g>
</defs>
<g id="surface52337">
<rect x="0" y="0" width="300" height="300" style="fill:rgb(100%,100%,100%);fill-opacity:1;stroke:none;"/>
<path style="fill:none;stroke-width:1.2;stroke-linecap:butt;stroke-linejoin:miter;stroke:rgb(0%,0%,0%);stroke-opacity:1;stroke-miterlimit:10;" d="M 35.25 160.066406 L 45.417969 168.453125 "/>
<path style="fill:none;stroke-width:1.2;stroke-linecap:butt;stroke-linejoin:miter;stroke:rgb(0%,0%,100%);stroke-opacity:1;stroke-miterlimit:10;" d="M 45.417969 168.453125 L 55.585938 176.835938 "/>
<path style="fill:none;stroke-width:1.2;stroke-linecap:butt;stroke-linejoin:miter;stroke:rgb(0%,0%,100%);stroke-opacity:1;stroke-miterlimit:10;" d="M 55.585938 176.835938 L 53.40625 189.835938 "/>
<path style="fill:none;stroke-width:1.2;stroke-linecap:butt;stroke-linejoin:miter;stroke:rgb(0%,0%,0%);stroke-opacity:1;stroke-miterlimit:10;" d="M 53.40625 189.835938 L 51.230469 202.835938 "/>
<path style="fill:none;stroke-width:1.2;stroke-linecap:butt;stroke-linejoin:miter;stroke:rgb(0%,0%,100%);stroke-opacity:1;stroke-miterlimit:10;" d="M 55.585938 176.835938 L 67.933594 172.222656 "/>
<path style="fill:none;stroke-width:1.2;stroke-linecap:butt;stroke-linejoin:miter;stroke:rgb(0%,0%,0%);stroke-opacity:1;stroke-miterlimit:10;" d="M 67.933594 172.222656 L 80.277344 167.613281 "/>
<path style=" stroke:none;fill-rule:nonzero;fill:rgb(100%,100%,100%);fill-opacity:1;" d="M 51.585938 170.335938 L 59.585938 170.335938 L 59.585938 183.335938 L 51.585938 183.335938 Z M 51.585938 170.335938 "/>
<g style="fill:rgb(0%,0%,100%);fill-opacity:1;">
  <use xlink:href="#glyph0-1" x="51.585938" y="180.237305"/>
</g>
<path style="fill:none;stroke-width:1.2;stroke-linecap:butt;stroke-linejoin:miter;stroke:rgb(0%,0%,0%);stroke-opacity:1;stroke-miterlimit:10;" d="M 80.277344 167.613281 L 100.613281 184.382812 "/>
<path style="fill:none;stroke-width:1.2;stroke-linecap:butt;stroke-linejoin:miter;stroke:rgb(0%,0%,0%);stroke-opacity:1;stroke-miterlimit:10;" d="M 100.613281 184.382812 L 112.960938 179.769531 "/>
<path style="fill:none;stroke-width:1.2;stroke-linecap:butt;stroke-linejoin:miter;stroke:rgb(0%,0%,100%);stroke-opacity:1;stroke-miterlimit:10;" d="M 112.960938 179.769531 L 125.308594 175.15625 "/>
<path style="fill:none;stroke-width:1.2;stroke-linecap:butt;stroke-linejoin:miter;stroke:rgb(0%,0%,100%);stroke-opacity:1;stroke-miterlimit:10;" d="M 125.308594 175.15625 L 135.476562 183.542969 "/>
<path style="fill:none;stroke-width:1.2;stroke-linecap:butt;stroke-linejoin:miter;stroke:rgb(0%,0%,0%);stroke-opacity:1;stroke-miterlimit:10;" d="M 135.476562 183.542969 L 145.644531 191.929688 "/>
<path style="fill:none;stroke-width:1.2;stroke-linecap:butt;stroke-linejoin:miter;stroke:rgb(0%,0%,100%);stroke-opacity:1;stroke-miterlimit:10;" d="M 125.308594 175.15625 L 127.484375 162.160156 "/>
<path style="fill:none;stroke-width:1.2;stroke-linecap:butt;stroke-linejoin:miter;stroke:rgb(0%,0%,0%);stroke-opacity:1;stroke-miterlimit:10;" d="M 127.484375 162.160156 L 129.664062 149.160156 "/>
<path style=" stroke:none;fill-rule:nonzero;fill:rgb(100%,100%,100%);fill-opacity:1;" d="M 121.308594 168.65625 L 129.308594 168.65625 L 129.308594 181.65625 L 121.308594 181.65625 Z M 121.308594 168.65625 "/>
<g style="fill:rgb(0%,0%,100%);fill-opacity:1;">
  <use xlink:href="#glyph0-1" x="121.308594" y="178.557617"/>
</g>
<path style="fill:none;stroke-width:1.2;stroke-linecap:butt;stroke-linejoin:miter;stroke:rgb(0%,0%,0%);stroke-opacity:1;stroke-miterlimit:10;" d="M 145.644531 191.929688 L 170.335938 182.703125 "/>
<path style="fill:none;stroke-width:1.2;stroke-linecap:butt;stroke-linejoin:miter;stroke:rgb(0%,0%,0%);stroke-opacity:1;stroke-miterlimit:10;" d="M 170.335938 182.703125 L 190.671875 199.476562 "/>
<path style="fill:none;stroke-width:1.2;stroke-linecap:butt;stroke-linejoin:miter;stroke:rgb(0%,0%,0%);stroke-opacity:1;stroke-miterlimit:10;" d="M 176.316406 179.59375 L 192.585938 193.011719 "/>
<path style="fill:none;stroke-width:1.2;stroke-linecap:butt;stroke-linejoin:miter;stroke:rgb(0%,0%,0%);stroke-opacity:1;stroke-miterlimit:10;" d="M 174.691406 156.707031 L 170.335938 182.703125 "/>
<path style="fill:none;stroke-width:1.2;stroke-linecap:butt;stroke-linejoin:miter;stroke:rgb(0%,0%,0%);stroke-opacity:1;stroke-miterlimit:10;" d="M 190.671875 199.476562 L 215.363281 190.25 "/>
<path style="fill:none;stroke-width:1.2;stroke-linecap:butt;stroke-linejoin:miter;stroke:rgb(0%,0%,0%);stroke-opacity:1;stroke-miterlimit:10;" d="M 215.363281 190.25 L 219.722656 164.25 "/>
<path style="fill:none;stroke-width:1.2;stroke-linecap:butt;stroke-linejoin:miter;stroke:rgb(0%,0%,0%);stroke-opacity:1;stroke-miterlimit:10;" d="M 209.683594 186.625 L 213.167969 165.828125 "/>
<path style="fill:none;stroke-width:1.2;stroke-linecap:butt;stroke-linejoin:miter;stroke:rgb(0%,0%,0%);stroke-opacity:1;stroke-miterlimit:10;" d="M 219.722656 164.25 L 199.386719 147.480469 "/>
<path style="fill:none;stroke-width:1.2;stroke-linecap:butt;stroke-linejoin:miter;stroke:rgb(0%,0%,0%);stroke-opacity:1;stroke-miterlimit:10;" d="M 219.722656 164.25 L 232.066406 159.640625 "/>
<path style="fill:none;stroke-width:1.2;stroke-linecap:butt;stroke-linejoin:miter;stroke:rgb(100%,0%,0%);stroke-opacity:1;stroke-miterlimit:10;" d="M 232.066406 159.640625 L 244.414062 155.027344 "/>
<path style="fill:none;stroke-width:1.2;stroke-linecap:butt;stroke-linejoin:miter;stroke:rgb(0%,0%,0%);stroke-opacity:1;stroke-miterlimit:10;" d="M 199.386719 147.480469 L 174.691406 156.707031 "/>
<path style="fill:none;stroke-width:1.2;stroke-linecap:butt;stroke-linejoin:miter;stroke:rgb(0%,0%,0%);stroke-opacity:1;stroke-miterlimit:10;" d="M 199.085938 154.210938 L 179.332031 161.59375 "/>
<path style="fill:none;stroke-width:1.2;stroke-linecap:butt;stroke-linejoin:miter;stroke:rgb(100%,0%,0%);stroke-opacity:1;stroke-miterlimit:10;" d="M 244.414062 155.027344 L 254.582031 163.410156 "/>
<path style="fill:none;stroke-width:1.2;stroke-linecap:butt;stroke-linejoin:miter;stroke:rgb(0%,0%,0%);stroke-opacity:1;stroke-miterlimit:10;" d="M 254.582031 163.410156 L 264.75 171.796875 "/>
<path style=" stroke:none;fill-rule:nonzero;fill:rgb(100%,100%,100%);fill-opacity:1;" d="M 240.414062 148.527344 L 249.414062 148.527344 L 249.414062 161.527344 L 240.414062 161.527344 Z M 240.414062 148.527344 "/>
<g style="fill:rgb(100%,0%,0%);fill-opacity:1;">
  <use xlink:href="#glyph0-2" x="240.414062" y="158.428711"/>
</g>
<path style="fill:none;stroke-width:1.2;stroke-linecap:butt;stroke-linejoin:miter;stroke:rgb(0%,0%,0%);stroke-opacity:1;stroke-miterlimit:10;" d="M 129.664062 149.160156 L 154.355469 139.933594 "/>
<path style="fill:none;stroke-width:1.2;stroke-linecap:butt;stroke-linejoin:miter;stroke:rgb(0%,0%,0%);stroke-opacity:1;stroke-miterlimit:10;" d="M 129.960938 142.425781 L 149.714844 135.046875 "/>
<path style="fill:none;stroke-width:1.2;stroke-linecap:butt;stroke-linejoin:miter;stroke:rgb(0%,0%,100%);stroke-opacity:1;stroke-miterlimit:10;" d="M 109.328125 132.386719 L 119.496094 140.773438 "/>
<path style="fill:none;stroke-width:1.2;stroke-linecap:butt;stroke-linejoin:miter;stroke:rgb(0%,0%,0%);stroke-opacity:1;stroke-miterlimit:10;" d="M 119.496094 140.773438 L 129.664062 149.160156 "/>
<path style="fill:none;stroke-width:1.2;stroke-linecap:butt;stroke-linejoin:miter;stroke:rgb(0%,0%,0%);stroke-opacity:1;stroke-miterlimit:10;" d="M 154.355469 139.933594 L 158.714844 113.9375 "/>
<path style="fill:none;stroke-width:1.2;stroke-linecap:butt;stroke-linejoin:miter;stroke:rgb(0%,0%,0%);stroke-opacity:1;stroke-miterlimit:10;" d="M 158.714844 113.9375 L 138.378906 97.164062 "/>
<path style="fill:none;stroke-width:1.2;stroke-linecap:butt;stroke-linejoin:miter;stroke:rgb(0%,0%,0%);stroke-opacity:1;stroke-miterlimit:10;" d="M 152.734375 117.042969 L 136.464844 103.628906 "/>
<path style="fill:none;stroke-width:1.2;stroke-linecap:butt;stroke-linejoin:miter;stroke:rgb(0%,0%,0%);stroke-opacity:1;stroke-miterlimit:10;" d="M 138.378906 97.164062 L 113.683594 106.390625 "/>
<path style="fill:none;stroke-width:1.2;stroke-linecap:butt;stroke-linejoin:miter;stroke:rgb(0%,0%,0%);stroke-opacity:1;stroke-miterlimit:10;" d="M 113.683594 106.390625 L 111.507812 119.390625 "/>
<path style="fill:none;stroke-width:1.2;stroke-linecap:butt;stroke-linejoin:miter;stroke:rgb(0%,0%,100%);stroke-opacity:1;stroke-miterlimit:10;" d="M 111.507812 119.390625 L 109.328125 132.386719 "/>
<path style="fill:none;stroke-width:1.2;stroke-linecap:butt;stroke-linejoin:miter;stroke:rgb(0%,0%,0%);stroke-opacity:1;stroke-miterlimit:10;" d="M 119.367188 110.015625 L 117.625 120.414062 "/>
<path style="fill:none;stroke-width:1.2;stroke-linecap:butt;stroke-linejoin:miter;stroke:rgb(0%,0%,100%);stroke-opacity:1;stroke-miterlimit:10;" d="M 117.625 120.414062 L 115.878906 130.8125 "/>
<path style=" stroke:none;fill-rule:nonzero;fill:rgb(100%,100%,100%);fill-opacity:1;" d="M 105.328125 125.886719 L 113.328125 125.886719 L 113.328125 138.886719 L 105.328125 138.886719 Z M 105.328125 125.886719 "/>
<g style="fill:rgb(0%,0%,100%);fill-opacity:1;">
  <use xlink:href="#glyph0-1" x="105.328125" y="135.788086"/>
</g>
</g>
</svg>

<svg xmlns="http://www.w3.org/2000/svg" xmlns:xlink="http://www.w3.org/1999/xlink" width="300pt" height="300pt" viewBox="0 0 300 300"><defs><symbol overflow="visible"><path d="M.547 1.938V-7.75h5.5v9.688zm.625-.61h4.266v-8.47H1.171zm0 0"/></symbol><symbol overflow="visible" id="a"><path d="M1.078-8.016h1.47l3.546 6.704v-6.704h1.062V0H5.688L2.124-6.703V0H1.078zm0 0"/></symbol><symbol overflow="visible" id="b"><path d="M4.328-7.28c-.78 0-1.406.296-1.875.89-.46.585-.687 1.382-.687 2.39 0 1.012.226 1.813.687 2.406.47.586 1.094.875 1.875.875.79 0 1.414-.288 1.875-.874.457-.593.688-1.394.688-2.406 0-1.008-.23-1.805-.687-2.39-.46-.594-1.086-.89-1.875-.89zm0-.892c1.125 0 2.024.383 2.703 1.14C7.708-6.28 8.048-5.27 8.048-4c0 1.262-.34 2.273-1.016 3.03C6.353-.22 5.454.157 4.33.157S2.3-.22 1.625-.97c-.668-.75-1-1.757-1-3.03 0-1.27.332-2.28 1-3.03.676-.76 1.578-1.142 2.703-1.142zm0 0"/></symbol></defs><g><path fill="#fff" d="M0 0h300v300H0z"/><path d="M35.25 160.066l10.168 8.387" stroke-width="1.2" stroke="#000" stroke-miterlimit="10" fill="none"/><path d="M45.418 168.453l10.168 8.383M55.586 176.836l-2.18 13" stroke-width="1.2" stroke="#00f" stroke-miterlimit="10" fill="none"/><path d="M53.406 189.836l-2.176 13" stroke-width="1.2" stroke="#000" stroke-miterlimit="10" fill="none"/><path d="M55.586 176.836l12.348-4.613" stroke-width="1.2" stroke="#00f" stroke-miterlimit="10" fill="none"/><path d="M67.934 172.223l12.343-4.61" stroke-width="1.2" stroke="#000" stroke-miterlimit="10" fill="none"/><path d="M51.586 170.336h8v13h-8zm0 0" fill="#fff"/><use xlink:href="#a" x="51.586" y="180.237" fill="#00f"/><path d="M80.277 167.613l20.336 16.77M100.613 184.383l12.348-4.613" stroke-width="1.2" stroke="#000" stroke-miterlimit="10" fill="none"/><path d="M112.96 179.77l12.35-4.614M125.31 175.156l10.167 8.387" stroke-width="1.2" stroke="#00f" stroke-miterlimit="10" fill="none"/><path d="M135.477 183.543l10.168 8.387" stroke-width="1.2" stroke="#000" stroke-miterlimit="10" fill="none"/><path d="M125.31 175.156l2.174-12.996" stroke-width="1.2" stroke="#00f" stroke-miterlimit="10" fill="none"/><path d="M127.484 162.16l2.18-13" stroke-width="1.2" stroke="#000" stroke-miterlimit="10" fill="none"/><path d="M121.31 168.656h8v13h-8zm0 0" fill="#fff"/><use xlink:href="#a" x="121.309" y="178.558" fill="#00f"/><path d="M145.645 191.93l24.69-9.227M170.336 182.703l20.336 16.774M176.316 179.594l16.27 13.418M174.69 156.707l-4.354 25.996M190.672 199.477l24.69-9.227M215.363 190.25l4.36-26M209.684 186.625l3.484-20.797M219.723 164.25l-20.336-16.77M219.723 164.25l12.343-4.61" stroke-width="1.2" stroke="#000" stroke-miterlimit="10" fill="none"/><path d="M232.066 159.64l12.348-4.613" stroke-width="1.2" stroke="#f00" stroke-miterlimit="10" fill="none"/><path d="M199.387 147.48l-24.696 9.227M199.086 154.21l-19.754 7.384" stroke-width="1.2" stroke="#000" stroke-miterlimit="10" fill="none"/><path d="M244.414 155.027l10.168 8.383" stroke-width="1.2" stroke="#f00" stroke-miterlimit="10" fill="none"/><path d="M254.582 163.41l10.168 8.387" stroke-width="1.2" stroke="#000" stroke-miterlimit="10" fill="none"/><path d="M240.414 148.527h9v13h-9zm0 0" fill="#fff"/><use xlink:href="#b" x="240.414" y="158.429" fill="#f00"/><path d="M129.664 149.16l24.69-9.226M129.96 142.426l19.755-7.38" stroke-width="1.2" stroke="#000" stroke-miterlimit="10" fill="none"/><path d="M109.328 132.387l10.168 8.386" stroke-width="1.2" stroke="#00f" stroke-miterlimit="10" fill="none"/><path d="M119.496 140.773l10.168 8.387M154.355 139.934l4.36-25.996M158.715 113.938L138.38 97.163M152.734 117.043l-16.27-13.414M138.38 97.164l-24.696 9.227M113.684 106.39l-2.176 13" stroke-width="1.2" stroke="#000" stroke-miterlimit="10" fill="none"/><path d="M111.508 119.39l-2.18 12.997" stroke-width="1.2" stroke="#00f" stroke-miterlimit="10" fill="none"/><path d="M119.367 110.016l-1.742 10.398" stroke-width="1.2" stroke="#000" stroke-miterlimit="10" fill="none"/><path d="M117.625 120.414l-1.746 10.398" stroke-width="1.2" stroke="#00f" stroke-miterlimit="10" fill="none"/><path d="M105.328 125.887h8v13h-8zm0 0" fill="#fff"/><use xlink:href="#a" x="105.328" y="135.788" fill="#00f"/></g></svg>
